X:1
T:Title
%%score { ( 1 2 4 ) | ( 3 5 ) }
L:1/8
M:4/4
K:F
V:1 treble nm="Grand Piano"
V:2 treble 
V:4 treble 
V:3 bass 
V:5 bass 
V:1
 z4 z2[Q:1/4=100] z G | A4 z4 | .B2 z2 z4 | c4 B2 z2 |[M:3/4] A6 |[M:1/4] z G |[M:4/4] A4 z4 | %7
 .[DFc]2 .[DG=B]2 [Ec]2 [EG]2 | z4 B2 z2 |[M:3/4] A6 |[M:1/4] A2 |[M:4/4] A3 A G2 G2 | c3 c B3 B | %13
 z4 B2 z2 |[M:3/4] F2 z2 E2 |[M:1/4] FG |[M:4/4] A4 z4 | .B2 z2 G2 z2 | %18
 [_EAc]2 [GB]A .[DFG]2 .[C=EG]2 |[M:3/4] [A,CF]6 |] %20
V:2
 z4 z2 F2 | z2 z G [A,F]2 [DFB]2 | [CG]-[CGc] A2 G2 AB | z2 FF z G B2 |[M:3/4] x6 |[M:1/4] F2 | %6
[M:4/4] z2 z G [CGc]2 [CEc]2 | x8 | A2 cF z A B2 |[M:3/4] x6 |[M:1/4] x2 |[M:4/4] x8 | x8 | %13
 d2 c2 z E [CFA]2 |[M:3/4] [CG-]4 G-[B,G] |[M:1/4] x2 |[M:4/4] z2 z G [A,F]2 [DFB]2 | %17
 [CG]-[CGc] A2 z B,AB | x8 |[M:3/4] x6 |] %20
V:3
 z4 z2 [F,A,]2 | [F,CF]2 CB, D,2 D,2 | E,2 [F,CF]2 [B,CE]2 [CE]-[G,CE] | %3
 [A,CE]2 [D,D]2[K:treble] .[G,DF]2 [G,CE]2 |[M:3/4][K:bass] [F,CF]6 |[M:1/4] A, z | %6
[M:4/4] [F,CF]2 [F,=B,]2 E,2 A,2 | z[K:treble] A z F[K:bass] [C,C]2 [C,C]2 | %8
 [F,CF]2 .[A,CF]2 .[G,DF]2 [G,DG]2 |[M:3/4] [A,^CE]6 |[M:1/4][K:bass] [A,^CE]2 | %11
[M:4/4] [^F,C_E]3 [F,CE] [G,B,D]2 [G,B,D]2 | [A,_E^F]3 [A,EF] [B,DG]3 [B,DG] | %13
 [B,CE]2 [A,CF]2[K:bass] .[G,CD]2 F,2 |[M:3/4] z2 E2 C2 |[M:1/4] C-[G,CE] | %16
[M:4/4] [F,CF]2 CB, D,2 D,2 | E,2 [F,CF]2 [CE]2 [CE]-[G,CE] | %18
 ^F,2[K:treble] z F[K:bass] z G, z B, |[M:3/4] F,6 |] %20
V:4
 x8 | z2 E2 z4 | x8 | x8 |[M:3/4] x6 |[M:1/4] x2 |[M:4/4] z2 D2 z4 | x8 | x8 |[M:3/4] x6 | %10
[M:1/4] x2 |[M:4/4] x8 | x8 | x8 |[M:3/4] x6 |[M:1/4] x2 |[M:4/4] z2 E2 z4 | x8 | x8 |[M:3/4] x6 |] %20
V:5
 x8 | z2 C,2 z4 | z4 z2 .A,2 | x4[K:treble] x4 |[M:3/4][K:bass] x6 |[M:1/4] F,-[F,B,] |[M:4/4] x8 | %7
 D,2[K:treble] G,2[K:bass] z4 | x8 |[M:3/4] x6 |[M:1/4][K:bass] x2 |[M:4/4] x8 | x8 | %13
 x4[K:bass] x4 |[M:3/4] C,4 z2 |[M:1/4] A, z |[M:4/4] z2 C,2 z4 | z4 z2 .A,2 | %18
 z2[K:treble] [G,D]2[K:bass] C,2 C,2 |[M:3/4] x6 |] %20

